X: 32012
T: Peeler's Jacket, The
R: reel
M: 4/4
K: Gmajor
GF|D2 BG DGBG|FGAB c2 Bc|defe dcde|fdcA BGAF|
D2 BG DGBG|FGAB c2 Bc|defe dcde|fdcA G2||
de|gfge d2 ef|gfga bgaf|gfge d2 eg|fdcA BG Gd|
gfge d2 ef|gfga bgaf|gbag fdde|fdcA G2||

